!!!!SEGMENT: pl-kk--kk-i-543_surzynski-jozef--laudate-dominum.krn
!!!cenid: 17xx:2638
!!!COM: Anonim
!!!COM-rismID: pe30004985
!!!CDT:
!!!CNT:
!!!OTL: Domine non sum dignus
!!!PDT:
!!!AGN: Sacred
!!!YEC: Copyright 2022 Narodowy Instytut Fryderyka Chopina (https://polishscores.org)
!!!YEM: License CC-BY-4.0 (https://creativecommons.org/licenses/by/4.0)
!!!SMS-siglum: PL-Kk
!!!SMS-shelfmark: Kk.I.558
!!!SMS-variant: Violino Primo. pl-kk kk.i.558:6-7; Violino Secondo. pl-kk kk.i.558:10-11; Basso. pl-kk kk.i.558:14
!!!SMS-altvar: Violino Primo. pl-kk kk.i.558:8-9; Violino Secondo. pl-kk kk.i.558:12-13; Basso. pl-kk kk.i.558:16-17
!!!SMS-shelfwork: W
!!!NIFC-rismSourceID: 1001209693
!!!NIFC-rismChildID: 1001209693
!!!NIFC-islandoraID: pl-kk:17314
!!!URL-pdf-islandora: https://repozytorium.nifc.pl/islandora/object/pl-kk:17314/datastream/PDF/view
!!!URL-scan: https://polish.musicsources.pl/pl/lokalizacje/galeria/rekopisy/7186/4 @EN{Scan on Polish Music Sources Website} @PL{Skany w portalu Dziedzictwo Muzyki Polskiej w otwartym dostępie}
!!!IIIF:
!!!ONB-nifc: UWAGA: wg pierwszych odpisów Violino Primo, Secondo i Basso (s. 6, 10, 14). Proszę uzupełnić SMS:variant i SMS:altvar.
!!!AIN: 1 bass 1 tenor 2 violn
!!!key:
**kern	**fba	**dynam	**kern	**dynam	**kern	**dynam	**kern	**text
*part4	*	*part4	*part3	*part3	*part2	*part2	*part1	*part1
*staff4	*	*	*staff3	*	*staff2	*	*staff1	*staff1
*I"Baſso	*	*	*I"Violino Secundo	*	*I"Violino 1mo	*	*I"Tenore	*
*I'b	*	*	*I'vl 2	*	*I'vl 1	*	*I'T	*
*Ibass	*	*	*Ivioln	*	*Ivioln	*	*Itenor	*
*ICklav	*	*	*ICstr	*	*ICstr	*	*ICvox	*
*clefF4	*	*	*clefG2	*	*clefG2	*	*clefC4	*
*Trd0c0	*	*	*	*	*	*	*	*
*k[b-e-a-]	*	*	*k[b-e-a-]	*	*k[b-e-a-]	*	*k[b-e-a-]	*
*E-:	*	*	*E-:	*	*E-:	*	*E-:	*
*M4/4	*	*	*M4/4	*	*M4/4	*	*M4/4	*
*met(c)	*	*	*met(c)	*	*met(c)	*	*met(c)	*
=1	=1	=1	=1	=1	=1	=1	=1	=1
!	!	!	!LO:TX:a:t=Aria	!	!LO:TX:a:t=Aria	!	!LO:TX:a:B:t=Adagio	!
!LO:TX:a:B:t=Adagio	!	!	!LO:TX:a:B:t=Adagio	!	!LO:TX:a:B:t=adagio	!	!	!
8E-\L	.	.	4.G/	.	4.e-/	.	00r	.
8E-\	.	.	.	.	.	.	.	.
8E-\J	.	.	.	.	.	.	.	.
8r	.	.	16c/LL	.	(16a-/LL	.	.	.
.	.	.	16B-/JJ	.	16g/JJ)	.	.	.
8E-\L	.	.	4.B-/	.	4.g/	.	.	.
8E-\	.	.	.	.	.	.	.	.
8E-\J	.	.	.	.	.	.	.	.
8r	.	.	16a-/LL	.	(16cc/LL	.	.	.
.	.	.	16g/JJ	.	16b-/JJ)	.	.	.
=2	=2	=2	=2	=2	=2	=2	=2	=2
8E-\L	.	.	8g/L	.	8b-\L	.	.	.
8E-\	.	.	16a-/L	.	16cc\L	.	.	.
.	.	.	16f/JJ	.	16dd\JJ	.	.	.
.	.	.	8qqa-/	.	8qqff/	.	.	.
8E-\	.	.	8g/L	.	8ee-\L	.	.	.
8E-\J	.	.	16f/L	.	16dd\L	.	.	.
.	.	.	16a-/JJ	.	16cc\JJ	.	.	.
8E-\L	.	.	8a-/L	.	8ccM\L	.	.	.
8E-\J	.	.	8g/J	.	8b-\J	.	.	.
8EE-/	.	.	8r	.	8r	.	.	.
8r	.	.	8g/	.	8b-\	.	.	.
=3	=3	=3	=3	=3	=3	=3	=3	=3
8AA-/L	.	.	8a-/L	.	8cc\L	.	.	.
*	*	*	*Xtuplet	*	*Xtuplet	*	*	*
8AA-/J	.	.	24cc/L	.	24aa-\L	.	.	.
.	.	.	24b-/	.	24gg\	.	.	.
.	.	.	24a-/JJ	.	24ff\JJ	.	.	.
8BB-/L	.	.	8g/L	.	8ee-\L	.	.	.
8BB-/J	.	.	8f/J	.	8dd\J	.	.	.
.	.	.	8qqf/	.	8qqdd/	.	.	.
8E-\L	.	.	4g/	.	4ee-\	.	.	.
8BB-\J	.	.	.	.	.	.	.	.
8EE-/	.	.	4r	.	8r	.	.	.
8r	.	.	.	.	(16ee-\LL	.	.	.
.	.	.	.	.	16dd-X\JJ)	.	.	.
=4	=4	=4	=4	=4	=4	=4	=4	=4
8r	.	.	(16g/LL	.	(16dd\LL	.	.	.
.	.	.	16a-/JJ)	.	16cc\JJ)	.	.	.
8E-\L	.	.	4a-/	.	4cc\	.	.	.
8E-\	6 4	.	.	.	.	.	.	.
8E-\J	.	.	(16cc/LL	.	(16ee-\LL	.	.	.
.	.	.	16a-/JJ)	.	16cc\JJ)	.	.	.
8r	.	.	16a-/LL	.	(16cc\LL	.	.	.
.	.	.	16g/JJ	.	16b-\JJ)	.	.	.
8E-\L	5 3	.	4g/	.	4b-\	.	.	.
8E-\	.	.	.	.	.	.	.	.
8E-\J	.	.	16e-/LL	.	(16g/LL	.	.	.
.	.	.	16g/JJ	.	16b-/JJ)	.	.	.
!	!	!	!LO:LB:g=original	!	!LO:LB:g=original	!	!	!
=5	=5	=5	=5	=5	=5	=5	=5	=5
8D\L	.	.	16g/LL	.	16b-/LL	.	00r	.
.	.	.	16f/	.	16a-/	.	.	.
8BB-\J	.	.	16d/	.	16f/	.	.	.
.	.	.	16f/JJ	.	16a-/JJ	.	.	.
8E-\L	3	.	16e-/LL	.	16g\LL	.	.	.
.	.	.	16g/	.	16ee-\	.	.	.
8E-\J	.	.	16g/	.	16b-\	.	.	.
.	.	.	16e-/JJ	.	16g\JJ	.	.	.
!LO:TX:t=P:problem:mixed beam	!	!	!	!	!	!	!	!
.	.	.	8qqe-/	.	8qqg/	.	.	.
8B-/L	4	.	4d/	.	4f/	.	.	.
8BB-\	3:	.	.	.	.	.	.	.
8BB-\J	.	.	4r	.	8r	.	.	.
8r	.	.	.	.	16b-\LL	.	.	.
.	.	.	.	.	16dd\JJ	.	.	.
!LO:LB:g=original	!	!	!	!	!	!	!	!
=6	=6	=6	=6	=6	=6	=6	=6	=6
!LO:TX:t=P:problem:mixed beam	!	!	!	!	!	!	!	!
8BB-/L	.	.	8.dd\L	.	8.ff\L	.	.	.
8B-\J	.	.	.	.	.	.	.	.
.	.	.	16cc\Jk	.	16ee-\Jk	.	.	.
!LO:TX:t=P:problem:mixed beam	!	!	!	!	!	!	!	!
8BB-/L	.	.	16b-\LL	.	(16dd\LL	.	.	.
.	.	.	16dd\	.	16ff\)	.	.	.
8B-\J	.	.	16dd\	.	(16bb-\	.	.	.
.	.	.	16b-\JJ	.	16dd\JJ)	.	.	.
.	.	.	8qqb-/	.	8qqdd/	.	.	.
8F\L	.	.	4a-\	.	4cc\	.	.	.
16F\L	.	.	.	.	.	.	.	.
16G\JJ	.	.	.	.	.	.	.	.
8An\L	.	.	8r	.	8r	.	.	.
!	!	!	!	!LO:DY:a:t=p.	!	!LO:DY:a:t=p.	!	!
8F\J	.	.	8cc\	p	8ee-\	p	.	.
=7	=7	=7	=7	=7	=7	=7	=7	=7
!LO:TX:t=P:problem:mixed beam	!	!	!	!	!	!	!	!
8B-\L	.	.	16b-\LL	.	(16dd\LL	.	.	.
.	.	.	16dd\	.	16ff\)	.	.	.
8BB-/J	.	.	16b-\	.	(16dd\	.	.	.
.	.	.	16dd\JJ	.	16ff\JJ)	.	.	.
8E-\L	.	.	16cc/LL	.	16ee-\LL	.	.	.
.	.	.	16e-/	.	16cc\	.	.	.
8F\J	.	.	16d/	.	(16b-\	.	.	.
.	.	.	16c/JJ	.	16an\JJ)	.	.	.
.	.	.	8qqc/	.	8qqa/	.	.	.
8B-\L	.	.	4d/	.	4b-\	.	.	.
16B-\L	.	.	.	.	.	.	.	.
16c\JJ	.	.	.	.	.	.	.	.
16B-\LL	.	.	4r	.	4r	.	.	.
16A-X\	.	.	.	.	.	.	.	.
16G\	.	.	.	.	.	.	.	.
16F\JJ	.	.	.	.	.	.	.	.
=8	=8	=8	=8	=8	=8	=8	=8	=8
!	!	!	!	!	!LO:TX:t=P:problem:mixed beam	!LO:DY:a	!	!
8E-\L	6	.	16e-/LL	.	16e-/LL	f	.	.
.	.	.	16g/JJ	.	16dd-X\JJ	.	.	.
16E-\L	7	.	4b-\	.	4dd-\	.	.	.
16F\JJ	.	.	.	.	.	.	.	.
8G\L	.	.	.	.	.	.	.	.
8E-\J	.	.	16g\LL	.	(16b-\LL	.	.	.
.	.	.	16b-\JJ	.	16dd-\JJ)	.	.	.
!LO:TX:t=P:problem:mixed beam	!	!	!	!	!	!	!	!
8A-\L	3	.	16a-\LL	.	(16cc\LL	.	.	.
.	.	.	16cc\JJ	.	16aa-\JJ)	.	.	.
16AA-/L	.	.	4cc\	.	4aa-\	.	.	.
16BB-/JJ	.	.	.	.	.	.	.	.
8C/L	.	.	.	.	.	.	.	.
8Dn/J	3 5	.	16a-\LL	.	(16ff\LL	.	.	.
.	.	.	16f\JJ	.	16ddn\JJ)	.	.	.
!	!	!	!LO:LB:g=original	!	!LO:LB:g=original	!	!	!
=9	=9	=9	=9	=9	=9	=9	=9	=9
!LO:TX:t=P:problem:mixed beam	!	!	!	!	!	!	!	!
8E-\L	.	.	16g/LL	.	16ee-\LL	.	1r	.
.	.	.	16g/	.	16b-\	.	.	.
8EE-/J	.	.	16e-/	.	16g\	.	.	.
.	.	.	16g/JJ	.	16b-\JJ	.	.	.
8BB-/L	.	.	16g/LL	.	16b-/LL	.	.	.
.	.	.	16f/	.	16a-/	.	.	.
8BB-/J	.	.	16e-/	.	16g/	.	.	.
.	.	.	16d/JJ	.	16f/JJ	.	.	.
.	.	.	8qqd/	.	8qqf/	.	.	.
8E-\L	.	.	4e-/	.	4e-/	.	.	.
8BB-\J	.	.	.	.	.	.	.	.
4EE-/	.	.	4r	.	4r	.	.	.
=10	=10	=10	=10	=10	=10	=10	=10	=10
!LO:TX:t=[segno]	!	!LO:DY:a:t=p&colon;	!LO:TX:t=[segno]	!LO:DY:a:t=pp&colon;	!	!LO:DY:a:t=pianiſsimi	!LO:TX:t=[segno]	!
8E-\L	.	p	16G/LL	pp	16e-/LL	pp	4.E-/	Do-
.	.	.	16G/	.	16e-/	.	.	.
8E-\	.	.	16G/	.	16e-/	.	.	.
.	.	.	16G/JJ	.	16e-/JJ	.	.	.
8E-\J	.	.	16G/LL	.	16e-/LL	.	.	.
.	.	.	16G/	.	16e-/	.	.	.
!LO:LB:g=original	!	!	!	!	!	!	!	!
8r	.	.	16f/	.	(16a-/	.	16A-/LL	-mi-
.	.	.	16e-/JJ	.	16g/JJ)	.	16G/JJ	.
8E-\L	.	.	16e-/LL	.	16g/LL	.	4.G/	-ne
.	.	.	16e-/	.	16g/	.	.	.
8E-\	.	.	16e-/	.	16g/	.	.	.
.	.	.	16e-/JJ	.	16g/JJ	.	.	.
8E-\J	.	.	16e-/LL	.	16g/LL	.	.	.
.	.	.	16e-/	.	16g/	.	.	.
8r	.	.	16a-/	.	(16cc/	.	16c/LL	non
.	.	.	16g/JJ	.	16b-/JJ)	.	16B-/JJ	.
=11	=11	=11	=11	=11	=11	=11	=11	=11
8E-\L	.	.	8g/L	.	8b-\L	.	8B-\L	non
8E-\	.	.	16a-/L	.	16cc\L	.	16c\L	.
.	.	.	16b-/JJ	.	16dd\JJ	.	16d\JJ	.
.	.	.	8qqdd/	.	8qqff/	.	8qqf/	.
8E-\	.	.	8cc\L	.	8ee-\L	.	8e-\	.
8E-\J	.	.	16b-\L	.	16dd\L	.	16d\LL	sum
.	.	.	16a-\JJ	.	16cc\JJ	.	16c\JJ	.
8E-\L	6 4	.	8a-/L	.	8cc\L	.	8c\	dig-
8E-\J	5 3	.	8g/J	.	8b-\J	.	8B-\	-nus
8EE-/	.	.	8r	.	8r	.	8r	.
8r	.	.	8g/	.	8b-\	.	8B-\	non
=12	=12	=12	=12	=12	=12	=12	=12	=12
8AA-/L	.	.	8a-\L	.	8cc\L	.	8.c\	non
8AA-/J	.	.	24cc\L	.	24aa-\L	.	.	.
.	.	.	24b-\	.	24gg\	.	.	.
.	.	.	.	.	.	.	32B-\LLL	sum
.	.	.	24a-\JJ	.	24ff\JJ	.	.	.
.	.	.	.	.	.	.	32A-\JJJ	.
8BB-/L	.	.	8g/L	.	8ee-\L	.	8G/L	di-
8BB-/J	.	.	8f/J	.	8dd\J	.	8F/J	.
!	!	!	!LO:LB:g=original	!	!	!	!	!
.	.	.	8qqf/	.	.	.	.	.
8E-\L	.	.	4g/	.	4ee-\	.	4E-/	-gnus
8BB-\J	.	.	.	.	.	.	.	.
!	!	!	!	!	!LO:LB:g=original	!	!LO:LB:g=original	!
8EE-/	.	.	4r	.	8r	.	8r	.
8r	.	.	.	.	(16ee-\LL	.	16e-\LL	ut
.	.	.	.	.	16dd-X\JJ)	.	16d-X\JJ	.
=13	=13	=13	=13	=13	=13	=13	=13	=13
8r	.	.	16g/LL	.	(16dd-X\LL	.	16d-X\LL	in-
.	.	.	16a-/JJ	.	16cc\JJ)	.	16c\JJ	.
!LO:TX:t=P:problem:mixed beam	!	!	!	!	!	!	!	!
8E-\L	.	.	4a-/	.	4cc\	.	4c\	-tres
8EE-/	6 4	.	.	.	.	.	.	.
8E-\J	.	.	16cc/LL	.	(16ee-\LL	.	(16e-\LL	ut
.	.	.	16a-/JJ	.	16cc\JJ)	.	16c\JJ)	.
8r	.	.	16a-/LL	.	(16cc\LL	.	16c\LL	in-
.	.	.	16g/JJ	.	16b-\JJ)	.	16B-\JJ	.
!LO:TX:t=P:problem:mixed beam	!	!	!	!	!	!	!	!
8E-\L	5 3	.	4g/	.	4b-\	.	4B-\	-tres
8EE-/	.	.	.	.	.	.	.	.
8E-\J	.	.	16e-/LL	.	(16g\LL	.	16G\LL	sub
.	.	.	16g/JJ	.	16b-\JJ)	.	16B-\JJ	.
=14	=14	=14	=14	=14	=14	=14	=14	=14
8D\L	.	.	16g/LL	.	16b-/LL	.	16B-\LL	te-
.	.	.	16f/	.	16a-/	.	16A-\	.
8BB-\J	.	.	16d/	.	16f/	.	16F\	.
.	.	.	16f/JJ	.	16a-/JJ	.	16A-\JJ	.
8E-\L	.	.	16e-/LL	.	16g/LL	.	16G\LL	.
.	.	.	16g/	.	16b-/	.	16B-\	.
8E-\J	.	.	16g/	.	16ee-/	.	16e-\	-ctum
.	.	.	16e-/JJ	.	16g/JJ	.	16G\JJ	.
!LO:TX:t=P:problem:mixed beam	!	!	!	!	!	!	!	!
8BB-/L	.	.	8e-/L	.	8g/L	.	8G/L	me-
8B-\J	.	.	8d/J	.	8f/J	.	8F/J	-um
!	!	!	!	!LO:DY:a	!	!LO:DY:a:t=f&colon;	!	!
8BB-/	.	.	16d/LL	f	16f/LL	f	4r	.
.	.	.	16c/	.	16e-/	.	.	.
8r	.	.	16c/	.	16e-/	.	.	.
.	.	.	16B-/JJ	.	16d/JJ	.	.	.
!LO:LB:g=original	!	!	!	!	!	!	!	!
=15	=15	=15	=15	=15	=15	=15	=15	=15
!	!	!LO:DY:a:t=p&colon;	!	!LO:DY:a:t=p&colon;	!	!LO:DY:a:t=p&colon;	!	!
16BB-/LL	.	p	16d/LL	p	16b-\LL	p	4B-\	Do-
16D/	.	.	16d/	.	16b-\	.	.	.
16F/	.	.	16d/	.	16b-\	.	.	.
16B-/JJ	.	.	16d/JJ	.	16b-\JJ	.	.	.
16F\LL	.	.	8.an\L	.	8.cc\L	.	8.c\L	.
16C\	.	.	.	.	.	.	.	.
16AAn\	.	.	.	.	.	.	.	.
16FF\JJ	.	.	32b-\LL	.	32dd\LL	.	32d\LL	-mi-
.	.	.	32cc\JJJ	.	32ee-\JJJ	.	32e-\JJJ	.
!	!	!	!	!	!	!LO:DY:a:t=f.	!	!
4BB-/	.	.	16b-\LL	.	16dd\LL	f	4d\	-ne
.	.	.	16cc\	.	16ee-\	.	.	.
.	.	.	16dd\	.	16ff\	.	.	.
.	.	.	16ee-\JJ	.	16gg\JJ	.	.	.
4r	.	.	16cc\LL	.	16aan\LL	.	4r	.
.	.	.	16dd\	.	16bb-\	.	.	.
.	.	.	16cc\	.	16aa\	.	.	.
.	.	.	16dd\JJ	.	16bb-\JJ	.	.	.
!	!	!	!LO:LB:g=original	!	!LO:LB:g=original	!	!LO:LB:g=original	!
=16	=16	=16	=16	=16	=16	=16	=16	=16
!	!	!	!	!	!	!LO:DY:a	!	!
16BB-/LL	.	.	16b-\LL	.	16dd\LL	p	4d\	Do-
16D/	.	.	16b-\	.	16dd\	.	.	.
16F/	.	.	16b-\	.	16dd\	.	.	.
16B-/JJ	.	.	16b-\JJ	.	16dd\JJ	.	.	.
16F\LL	.	.	8.cc\L	.	8.ee-\L	.	8.e-\L	.
16C\	.	.	.	.	.	.	.	.
16AAn\	.	.	.	.	.	.	.	.
16FF\JJ	.	.	32dd\LL	.	32ff\LL	.	32f\LL	-mi-
.	.	.	32ee-\JJJ	.	32gg\JJJ	.	32g\JJJ	.
!	!	!	!	!	!	!LO:DY:a	!	!
4BB-/	.	.	16dd\LL	.	16ff\LL	f	4f\	-ne
.	.	.	16dd\	.	16bb-\	.	.	.
.	.	.	16dd\	.	16bb-\	.	.	.
.	.	.	16cc\JJ	.	16aan\JJ	.	.	.
4r	.	.	16cc\LL	.	16aa\LL	.	4r	.
.	.	.	16ee-\	.	16gg\	.	.	.
.	.	.	16ee-\	.	16gg\	.	.	.
.	.	.	16dd\JJ	.	16ff\JJ	.	.	.
=17	=17	=17	=17	=17	=17	=17	=17	=17
!LO:TX:t=P:problem:mixed beam	!	!	!	!	!	!LO:DY:a:t=p.	!	!
8BB-/L	.	.	8dd\L	.	8ff\L	p	8f\	do-
8B-\J	.	.	16ee-\L	.	16gg\L	.	16g\	-mi-
.	.	.	16dd\JJ	.	16ff\JJ	.	16f\	-ne
!	!	!	!LO:TX:t=P:problem:mixed beam	!	!	!	!	!
8An\L	.	.	16cc\LL	.	16ee-\LL	.	16e-\LL	non
.	.	.	16b-\	.	16dd\	.	16d\JJ	.
8B-\J	.	.	16e-/	.	16cc\	.	16c\LL	sum
.	.	.	16d/JJ	.	16b-\JJ	.	16B-\JJ	.
!LO:TX:t=P:problem:mixed beam	!	!	!	!	!	!	!	!
8F\L	.	.	8dm/L	.	8b-M/L	.	8B-\	dig-
8FF/J	.	.	8c/J	.	8an/J	.	8An\	-nus
8FF/	.	.	16c/LL	.	(16f/LL	.	8r	.
.	.	.	16f/	.	16a/)	.	.	.
!	!	!	!	!	!	!	!LO:TX:t=P:problem:mixed beam	!
8r	.	.	16an/	.	16cc'/	.	16F/LL	ut
.	.	.	16cc/JJ	.	16ee-'/JJ	.	16e-\JJ	.
=18	=18	=18	=18	=18	=18	=18	=18	=18
.	.	.	.	.	16qqff/LL	.	.	.
.	.	.	.	.	16qqee-/	.	.	.
.	.	.	.	.	16qqdd/JJ	.	.	.
8AAn/L	.	.	8cc\L	.	(8ee-\L	.	8e-\	in-
8BB-/J	.	.	8b-\J	.	8dd\J)	.	8d\	-tres
4r	.	.	16a-/LL	.	16f/LL	.	8r	.
.	.	.	16f/	.	16a-/	.	.	.
!	!	!	!	!	!	!	!LO:TX:t=P:problem:mixed beam	!
.	.	.	16a-/	.	16cc/	.	16F/LL	sub
.	.	.	16cc/JJ	.	16ee-/JJ	.	16e-\JJ	.
8AA/L	.	.	8cc\L	.	8ee-\L	.	8e-\	tec-
8BB-/J	.	.	8b-\J	.	8dd\J	.	8d\	-tum
!LO:TX:t=P:problem:mixed beam	!	!	!	!	!	!LO:DY:a:t=f&colon;	!	!
8BB-/L	.	.	16b-\LL	.	16dd\LL	f	8r	.
!	!	!	!	!LO:DY:a:t=f&colon;	!	!	!	!
.	.	.	16b-\	f	16dd\	.	.	.
!	!	!	!	!	!	!LO:DY:a:t=p&colon;	!	!
8B-\J	.	.	16dd\	.	16ff\	p	8f\	sub
!	!	!	!	!LO:DY:a:t=p&colon;	!	!	!	!
.	.	.	16dd\JJ	p	16ff\JJ	.	.	.
!LO:LB:g=original	!	!	!LO:LB:g=original	!	!LO:LB:g=original	!	!LO:LB:g=original	!
=19	=19	=19	=19	=19	=19	=19	=19	=19
8E-\L	.	.	16ee-\LL	.	16gg\LL	.	16g\LL	tec-
.	.	.	16g\	.	16ee-\	.	16e-\JJ	.
8E-\J	.	.	16f\	.	16dd\	.	16d\LL	-tum
.	.	.	16e-\JJ	.	16cc\JJ	.	16c\JJ	.
!LO:TX:t=P:problem:mixed beam	!	!	!	!	!	!	!	!
8F\L	.	.	8d/L	.	8b-\L	.	8B-\L	me-
8FF/J	.	.	8c/J	.	8an\J	.	8An\J	.
!LO:TX:t=P:problem:mixed beam	!	!	!	!	!	!	!	!
.	.	.	.	.	.	.	8qqA/	.
8BB-/L	.	.	16d/LL	.	16b-\LL	.	4B-\	-um
.	.	.	16d/	.	16b-\	.	.	.
8B-\J	.	.	16d/	.	16b-\	.	.	.
.	.	.	16d/JJ	.	16b-\JJ	.	.	.
!LO:TX:t=P:problem:mixed beam	!	!	!	!	!	!	!	!
8F\L	.	.	8.an\L	.	8.cc\L	.	8.c\L	sub
8FF/J	.	.	.	.	.	.	.	.
.	.	.	32b-\LL	.	32dd\LL	.	32d\LL	.
.	.	.	32cc\JJJ	.	32ee-\JJJ	.	32e-\JJJ	.
=20	=20	=20	=20	=20	=20	=20	=20	=20
!	!	!	!LO:TX:t=P:problem:klamra łukowa	!	!	!	!	!
*	*	*	*tuplet	*	*	*	*Xtuplet	*
!	!	!	!LO:TUP:a	!	!	!	!	!
8BB-/L	.	.	24b-\LL	.	24dd\LL	.	24d\LL	tec-
.	.	.	(24cc\	.	(24ee-\	.	24e-\	.
.	.	.	24dd\	.	(24ff\	.	24f\JJ	.
8E-/J	.	.	24ee-\	.	24gg\)	.	24g\LL	-tum
.	.	.	24dd\)	.	24ff\)	.	24f\	.
.	.	.	24cc\JJ	.	24ee-\JJ	.	24e-\JJ	.
!LO:TX:t=P:problem:mixed beam	!	!	!	!	!	!	!	!
8F/L	.	.	8b-\L	.	8dd\L	.	8d\L	me-
8FF/J	.	.	8an\J	.	8cc\J	.	8cM\J	.
!	!	!LO:DY:a:t=f.	!	!LO:DY:a:t=f&colon;	!	!LO:DY:a:t=f&colon;	!	!
16BB-/LL	.	f	16d/LL	f	16b-\LL	f	4B-\	-um
16C/	.	.	16d/	.	16b-\	.	.	.
16D/	.	.	16d/	.	16b-\	.	.	.
16E-/JJ	.	.	16d/JJ	.	16b-\JJ	.	.	.
16F\LL	.	.	16d/LL	.	16b-\LL	.	4r	.
16G\	.	.	16d/	.	16b-\	.	.	.
16An\	.	.	16d/	.	16b-\	.	.	.
16B-\JJ	.	.	16d/JJ	.	16b-\JJ	.	.	.
=21	=21	=21	=21	=21	=21	=21	=21	=21
!	!	!	!	!	!	!	!LO:TX:b:t=4.	!
8F\L	.	.	8.e-/L	.	8.cc\L	.	00r	.
8F\J	.	.	.	.	.	.	.	.
.	.	.	32f/LL	.	32dd\LL	.	.	.
.	.	.	32g/JJJ	.	32ee-\JJJ	.	.	.
8FF/L	.	.	16g/LL	.	16ee-\LL	.	.	.
.	.	.	16e-/	.	16cc\	.	.	.
8FF/J	.	.	16d/	.	16b-\	.	.	.
.	.	.	16c/JJ	.	16an\JJ	.	.	.
16BB-/LL	.	.	16d/LL	.	16b-\LL	.	.	.
16C/	.	.	16f/	.	16dd\	.	.	.
16D/	.	.	16f/	.	16dd\	.	.	.
16E-/JJ	.	.	16f/JJ	.	16dd\JJ	.	.	.
16F\LL	.	.	16f/LL	.	16dd\LL	.	.	.
16G\	.	.	16f/	.	16dd\	.	.	.
16A-\	.	.	16f/	.	16dd\	.	.	.
16B-\JJ	.	.	16f/JJ	.	16dd\JJ	.	.	.
!	!	!	!LO:LB:g=original	!	!LO:LB:g=original	!	!	!
=22	=22	=22	=22	=22	=22	=22	=22	=22
8E-\L	.	.	8.cc\L	.	8.ee-\L	.	.	.
8E-\J	.	.	.	.	.	.	.	.
.	.	.	32dd\LL	.	32ff\LL	.	.	.
.	.	.	32ee-\JJJ	.	32gg\JJJ	.	.	.
8F\L	.	.	16ee-\LL	.	16gg\LL	.	.	.
.	.	.	16cc\	.	16ee-\	.	.	.
8F\J	.	.	16b-\	.	16dd\	.	.	.
.	.	.	16an\JJ	.	16cc\JJ	.	.	.
4BB-/	.	.	16b-\LL	.	(16dd\LL	.	.	.
.	.	.	16cc\	.	16ee-\)	.	.	.
.	.	.	16cc\	.	(16ee-\	.	.	.
.	.	.	16dd\JJ	.	16ff\JJ)	.	.	.
4r	.	.	16dd\LL	.	(16ff\LL	.	.	.
.	.	.	16ee-\	.	16gg\)	.	.	.
.	.	.	16ee-\	.	(16gg\	.	.	.
.	.	.	16cc\JJ	.	16aa-\JJ)	.	.	.
!LO:LB:g=original	!	!	!	!	!	!	!	!
=23	=23	=23	=23	=23	=23	=23	=23	=23
8BB-/	.	.	8dd\	.	24bb-'\LL	.	.	.
.	.	.	.	.	24aa-'\	.	.	.
.	.	.	.	.	24gg'\	.	.	.
8r	.	.	8r	.	24ff'\	.	.	.
.	.	.	.	.	24ee-'\	.	.	.
.	.	.	.	.	24dd'\JJ	.	.	.
!	!	!	!LO:TUP:a	!	!	!	!	!
8E-\	.	.	24ee-\LL	.	24gg'\LL	.	.	.
.	.	.	(24dd\	.	24ff'\	.	.	.
.	.	.	24cc\	.	24ee-'\	.	.	.
8r	.	.	24b-\	.	24dd'\	.	.	.
.	.	.	24a-\)	.	24cc'\	.	.	.
.	.	.	24b-\JJ	.	24b-'\JJ	.	.	.
*	*	*	*tremolo	*	*	*	*	*
16F\LL	.	.	16b-\LL	.	4f/	.	.	.
16F\	6 4	.	16b-\	.	.	.	.	.
16F\	.	.	16b-\	.	.	.	.	.
16F\JJ	.	.	16b-\JJ	.	.	.	.	.
16FF/LL	.	.	16an\LL	.	4ccM\	.	.	.
16FF/	5 3	.	16a\	.	.	.	.	.
16FF/	.	.	16a\	.	.	.	.	.
16FF/JJ	.	.	16a\JJ	.	.	.	.	.
*	*	*	*Xtremolo	*	*	*	*	*
=24	=24	=24	=24	=24	=24	=24	=24	=24
8BB-/	.	.	16b-/LL	.	8b-/L	.	.	.
.	.	.	16d/	.	.	.	.	.
8r	.	.	16d/	.	16f/L	.	.	.
.	.	.	16e-/JJ	.	16g/JJ	.	.	.
8BB-/	.	.	16e-/LL	.	16g/LL	.	.	.
.	.	.	16d/	.	16f/	.	.	.
8r	.	.	16d/	.	16f/	.	.	.
.	.	.	16c/JJ	.	16e-/JJ	.	.	.
.	.	.	8qqc/	.	8qqe-/	.	.	.
8BB-/L	.	.	4B-/	.	4d/	.	.	.
8FF/	.	.	.	.	.	.	.	.
8BB-/J	.	.	4r	.	4r	.	.	.
8r	.	.	.	.	.	.	.	.
!	!	!	!LO:LB:g=original	!	!	!	!	!
=25	=25	=25	=25	=25	=25	=25	=25	=25
!	!	!	!	!LO:DY:a:t=pp&colon;	!	!LO:DY:a:t=p&colon;	!	!
8BB-/L	.	.	16d/LL	pp	16b-\LL	p	4.B-\	Do-
.	.	.	16d/	.	16b-\	.	.	.
8BB-/	.	.	16d/	.	16b-\	.	.	.
.	.	.	16d/JJ	.	16b-\JJ	.	.	.
8BB-/J	.	.	16d/LL	.	16b-\LL	.	.	.
.	.	.	16d/	.	16b-\	.	.	.
8r	.	.	16g/	.	(16ee-\	.	16e-\LL	-mi-
.	.	.	16f/JJ	.	16dd\JJ)	.	16d\JJ	.
!	!	!	!	!	!LO:LB:g=original	!	!	!
8BB-/L	.	.	16f/LL	.	16dd\LL	.	4.d\	-ne
.	.	.	16f/	.	16dd\	.	.	.
8BB-/	.	.	16f/	.	16dd\	.	.	.
.	.	.	16f/JJ	.	16dd\JJ	.	.	.
!	!	!	!LO:TX:t=P:problem:mixed beam	!	!	!	!	!
8BB-/J	.	.	16f/LL	.	16dd\LL	.	.	.
.	.	.	16f/	.	16dd\	.	.	.
8r	.	.	16ee-\	.	(16gg\	.	16g\LL	non
.	.	.	16dd\JJ	.	16ff\JJ)	.	16f\JJ	.
!	!	!	!	!	!	!	!LO:LB:g=original	!
=26	=26	=26	=26	=26	=26	=26	=26	=26
!	!	!LO:DY:a:t=p.	!	!	!	!	!	!
8BB-\L	.	p	16dd\LL	.	16ff\LL	.	16f\LL	non
.	.	.	16cc\	.	16ee-\	.	16e-\	.
8BB-/J	.	.	16b-\	.	16dd\	.	16d\	.
.	.	.	16dd\JJ	.	16ff\JJ	.	16f\JJ	.
!LO:TX:t=P:problem:mixed beam	!	!	!LO:TX:t=P:problem:mixed beam	!	!	!	!	!
8F/L	.	.	16cc\LL	.	16ee-\LL	.	16e-\LL	.
.	.	.	16e-/	.	16cc\	.	16c\JJ	.
8FF\J	.	.	16d/	.	16b-\	.	16B-\LL	sum
.	.	.	16c/JJ	.	16an\JJ	.	16An\JJ	.
!LO:TX:t=P:problem:mixed beam	!	!	!	!	!	!	!	!
8BB-/L	.	.	8d/L	.	8b-\L	.	8B-\	dig-
8B-\J	.	.	8d/J	.	8f\J	.	8F/	-nus
8BB-/	.	.	16d/LL	.	16f/LL	.	4r	.
.	.	.	16c/	.	16e-/	.	.	.
8r	.	.	16c/	.	16e-/	.	.	.
.	.	.	16B-/JJ	.	16d/JJ	.	.	.
=27	=27	=27	=27	=27	=27	=27	=27	=27
!LO:TX:t=P:problem:mixed beam	!	!	!	!LO:DY:a:t=f.	!	!LO:DY:a:t=f&colon;	!	!
8BB-\L	.	.	4.d/	f	4.b-\	f	1r	.
8B-\	.	.	.	.	.	.	.	.
8BB-\J	.	.	.	.	.	.	.	.
8r	.	.	16g/LL	.	(16ee-\LL	.	.	.
.	.	.	16f/JJ	.	16dd\JJ)	.	.	.
!LO:LB:g=original	!	!	!	!	!	!	!	!
!LO:TX:t=P:problem:mixed beam	!	!	!	!	!	!	!	!
8BB-/L	.	.	4.f/	.	4.dd\	.	.	.
8B-\	.	.	.	.	.	.	.	.
8BB-/J	.	.	.	.	.	.	.	.
8r	.	.	16ee-\LL	.	(16gg\LL	.	.	.
.	.	.	16dd\JJ	.	16ff\JJ)	.	.	.
=28	=28	=28	=28	=28	=28	=28	=28	=28
8BB-/L	.	.	16dd\LL	.	16ff\LL	.	2r	.
.	.	.	16cc\	.	16ee-\	.	.	.
8BB-/J	.	.	16b-\	.	16dd\	.	.	.
.	.	.	16dd\JJ	.	16ff\JJ	.	.	.
8E-\L	.	.	16ee-\LL	.	16gg\LL	.	.	.
.	.	.	16cc\	.	16ee-\	.	.	.
8F\J	.	.	16an\	.	16cc\	.	.	.
.	.	.	16a\JJ	.	16an\JJ	.	.	.
!	!	!	!LO:LB:g=original	!	!	!	!	!
.	.	.	16qqcc/LL	.	16qqcc/LL	.	.	.
.	.	.	16qqb-/	.	16qqb-/	.	.	.
!LO:TX:t=P:problem:mixed beam	!	!	!	!	!	!	!	!
.	.	.	16qqa/JJ	.	16qqa/JJ	.	.	.
8B-\L	.	.	8b-/L	.	8b-/L	.	4r	.
8BB-/J	.	.	8f/J	.	8f/J	.	.	.
8BB-/	.	.	4r	.	4r	.	8r	.
8r	.	.	.	.	.	.	8F/	ut
!	!	!	!	!	!LO:LB:g=original	!	!	!
=29	=29	=29	=29	=29	=29	=29	=29	=29
!	!	!	!	!LO:DY:a:t=p&colon;	!	!LO:DY:a:t=p&colon;	!	!
8E-\L	5 3	.	16b-\LL	p	16gg\LL	p	8G/L	in-
.	.	.	16b-\	.	16gg\	.	.	.
8E-\	.	.	16b-\	.	16gg\	.	8B-/J	.
.	.	.	16b-\JJ	.	16gg\JJ	.	.	.
*	*	*	*	*	*tremolo	*	*	*
8E-\	.	.	16b-\LL	.	16gg\LL	.	8e-\L	.
.	.	.	16b-\	.	16gg\	.	.	.
8E-\J	.	.	16b-\	.	16gg\	.	8G\J	.
.	.	.	16b-\JJ	.	16gg\JJ	.	.	.
*	*	*	*	*	*Xtremolo	*	*	*
!LO:TX:t=P:problem:mixed beam	!	!	!	!	!	!	!	!
8BB-/L	6 4	.	8ee-\L	.	(8gg\L	.	8G/	.
8B-\J	5 3	.	8dd\J	.	8ff\J)	.	8F/	-tres
8BB-/	.	.	8r	.	8r	.	8r	.
8r	.	.	8f/	.	8dd\	.	8d\	sub
=30	=30	=30	=30	=30	=30	=30	=30	=30
!LO:TX:t=P:problem:mixed beam	!	!	!	!	!	!	!	!
8BB-/L	.	.	16f/LL	.	(16dd\LL	.	16d\LL	tec-
.	.	.	16e-/	.	16cc\)	.	16c\JJ	.
8B-\J	.	.	16g/	.	(16ee-\	.	16e-\LL	-tum
.	.	.	16f/JJ	.	16dd\JJ)	.	16d\JJ	.
8D\L	.	.	16f/LL	.	(16dd\LL	.	(16d\LL	me-
.	.	.	16e-/	.	16cc\)	.	16c\)	.
8E-\J	.	.	16e-/	.	(16cc\	.	(16c\	.
.	.	.	16d/JJ	.	16b-\JJ)	.	16B-\JJ)	.
!LO:TX:t=P:problem:mixed beam	!	!	!	!	!	!	!	!
.	.	.	8qqd/	.	8qqb-/	.	.	.
!	!	!	!	!	!	!	!LO:LB:g=original	!
8F\L	.	.	4c/	.	4an\	.	4An\	-um
8FF/	.	.	.	.	.	.	.	.
8FF/J	.	.	8r	.	8r	.	8r	.
!	!	!	!LO:TX:a:t=|	!	!LO:TX:a:t=|	!	!	!
8r	.	.	16ee-\LL	.	16gg\LL	.	16g\	non
!	!	!	!LO:TX:a:t=|	!	!LO:TX:a:t=|	!	!	!
.	.	.	16cc\JJ	.	16ee-\JJ	.	16e-\	sum
=31	=31	=31	=31	=31	=31	=31	=31	=31
8AAn/L	.	.	(8cc\L	.	(8ee-\L	.	8e-\	dig-
8BB-/J	.	.	8b-\J)	.	8dd\J)	.	8d\	-nus
4r	.	.	8r	.	8r	.	8r	.
!	!	!	!LO:TX:b:t=|	!	!LO:TX:a:t=|	!	!	!
.	.	.	16g/LL	.	16ee-\LL	.	16e-\	non
!	!	!	!LO:TX:b:t=|	!	!LO:TX:a:t=|	!	!	!
.	.	.	16e-/JJ	.	16cc\JJ	.	16c\	sum
8AA/L	.	.	8e-/L	.	(8cc\L	.	8B-\	dig-
8BB-/J	.	.	8d/J	.	8b-\J)	.	8B-\	-nus
16B-\LL	.	.	4r	.	4r	.	4r	.
16A-X\	.	.	.	.	.	.	.	.
16G\	.	.	.	.	.	.	.	.
16F\JJ	.	.	.	.	.	.	.	.
!LO:LB:g=original	!	!	!LO:LB:g=original	!	!	!	!	!
=32	=32	=32	=32	=32	=32	=32	=32	=32
*	*	*	*	*	*tremolo	*	*	*
!	!	!	!	!	!	!LO:DY:a	!	!
16E-\LL	67: 5: 3:	.	16g/LL	.	16b-\LL	p	16E-/LL	Do-
16E-\	.	.	16g/	.	16b-\	.	16F/JJ	.
16E-\	.	.	16g/	.	16b-\	.	16G/	-mi-
16E-\JJ	.	.	16g/JJ	.	16b-\JJ	.	16A-/	-ne
16D-X\LL	.	.	16g/LL	.	16b-\LL	.	16B-\LL	non
16D-\	.	.	16g/	.	16b-\	.	16c\	.
16D-\	.	.	16g/	.	16b-\	.	16d-X\JJ	.
16D-\JJ	.	.	16g/JJ	.	16b-\JJ	.	16e-X\	sum
*	*	*	*	*	*Xtremolo	*	*	*
8G\L	65 3	.	8b-/L	.	8dd-X\L	.	8d-X\	dig-
8A-X\J	3	.	8a-/J	.	8cc\J	.	8c\	-nus
!	!	!	!	!LO:DY:a:t=f&colon;	!	!LO:DY:a	!	!
8G\L	65 3	.	8b-/L	f	(8dd-\L	f	4r	.
8A-\J	3	.	8a-/J	.	8cc\J)	.	.	.
!	!	!	!	!	!LO:LB:g=original	!	!LO:LB:g=original	!
=33	=33	=33	=33	=33	=33	=33	=33	=33
!	!	!	!	!LO:DY:a:t=p&colon;	!	!LO:DY:a:t=p.	!	!
16F\LL	67: 5: 3:	.	16an\LL	p	16cc\LL	p	16F/LL	Do-
16F\	.	.	16a\	.	16cc\	.	16G/JJ	.
16F\	.	.	16a\	.	16cc\	.	16An/	-mi-
16F\JJ	.	.	16a\JJ	.	16cc\JJ	.	16B-/	-ne
*	*	*	*	*	*tremolo	*	*	*
16E-X\LL	.	.	16a\LL	.	16cc\LL	.	16c\LL	non
16E-\	.	.	16a\	.	16cc\	.	16d\	.
16E-\	.	.	16a\	.	16cc\	.	16e-\JJ	.
16E-\JJ	.	.	16a\JJ	.	16cc\JJ	.	16f\	sum
*	*	*	*	*	*Xtremolo	*	*	*
8AAn/L	65 3	.	8cc\L	.	8ee-\L	.	8e-\	dig-
8BB-/J	3	.	8b-\J	.	8ddn\J	.	8d\	-nus
!	!	!	!	!LO:DY:a	!	!LO:DY:a	!	!
8AA/L	65 3	.	8cc\L	f	(8ee-\L	f	8r	.
8BB-/J	3	.	8b-\J	.	8dd\J)	.	8B-\	non
=34	=34	=34	=34	=34	=34	=34	=34	=34
*	*	*	*2\right	*	*2\right	*	*	*
*tremolo	*	*	*tremolo	*	*tremolo	*	*	*
!	!	!	!	!LO:DY:a:t=p&colon;	!	!LO:DY:a	!	!
16D\LL	.	.	16b-\LL	p	16ff\LL	p	4a-X\	non
16D\	.	.	16b-\	.	16ff\	.	.	.
16D\	.	.	16b-\	.	16ff\	.	.	.
16D\JJ	.	.	16b-\	.	16ff\	.	.	.
16D\LL	.	.	16b-\	.	16ff\	.	16a-\LL	n(on)
16D\	.	.	16b-\	.	16ff\	.	16f\JJ	.
16D\	.	.	16b-\	.	16ff\	.	16e-\LL	sum
16D\JJ	.	.	16b-\JJ	.	16ff\JJ	.	16d\JJ	.
*Xtremolo	*	*	*Xtremolo	*	*Xtremolo	*	*	*
8E-\L	.	.	8g/L	.	8ee-\L	.	8e-\L	dig-
8BB-\J	.	.	16f/L	.	16dd\L	.	16d\L	.
.	.	.	16a-/JJ	.	16cc\JJ	.	16c\JJ	.
8E-\L	.	.	8g/L	.	8b-\	.	8B-\	-nus
8E-\J	.	.	8g/J	.	8r	.	8B-\	ut
=35	=35	=35	=35	=35	=35	=35	=35	=35
*tremolo	*	*	*tremolo	*	*tremolo	*	*	*
16D\LL	.	.	16b-\LL	.	16ff\LL	.	4a-\	in-
16D\	.	.	16b-\	.	16ff\	.	.	.
16D\	.	.	16b-\	.	16ff\	.	.	.
16D\JJ	.	.	16b-\	.	16ff\	.	.	.
16D\LL	.	.	16b-\	.	16ff\	.	16a-\LL	.
16D\	.	.	16b-\	.	16ff\	.	16f\	.
16D\	.	.	16b-\	.	16ff\	.	16e-\	.
16D\JJ	.	.	16b-\JJ	.	16ff\JJ	.	16d\JJ	.
*Xtremolo	*	*	*Xtremolo	*	*Xtremolo	*	*	*
8E-\L	.	.	8g/L	.	8ee-\L	.	8e-\L	.
8BB-\J	.	.	16f/L	.	16dd\L	.	16d\L	.
.	.	.	16a-/JJ	.	16cc\JJ	.	16c\JJ	.
8E-\	.	.	8g/L	.	8b-\L	.	8B-\	-tres
8r	.	.	8g/J	.	8b-\J	.	8B-\	sub
!LO:LB:g=original	!	!	!LO:LB:g=original	!	!	!	!LO:LB:g=original	!
=36	=36	=36	=36	=36	=36	=36	=36	=36
8E-\	6: 4:	.	8a-/	.	8cc\	.	16c\LL	tec-
.	.	.	.	.	.	.	16A-\	.
8r	.	.	8r	.	8r	.	16G\	.
.	.	.	.	.	.	.	16A-\JJ	.
8E-\	.	.	8cc\	.	8ee-\	.	16c\LL	.
.	.	.	.	.	.	.	16e-\	.
8r	.	.	8r	.	8r	.	16d\	.
.	.	.	.	.	.	.	16e-\JJ	.
8E-\	5: 3:	.	8g/	.	8b-\	.	16B-\LL	.
.	.	.	.	.	.	.	16G\	.
8r	.	.	8r	.	8r	.	16F\	.
.	.	.	.	.	.	.	16G\JJ	.
8E-\	.	.	8g/	.	8ee-\	.	16B-\LL	.
.	.	.	.	.	.	.	16e-\	.
8r	.	.	8r	.	8r	.	16d\	.
.	.	.	.	.	.	.	16e-\JJ	.
!	!	!	!	!	!LO:LB:g=original	!	!	!
=37	=37	=37	=37	=37	=37	=37	=37	=37
8D\	.	.	8f/	.	8a-\	.	16A-\LL	.
.	.	.	.	.	.	.	16F\	.
8r	.	.	8r	.	8r	.	16A-\	.
.	.	.	.	.	.	.	16d\JJ	.
8BB-/	67	.	8a-/	.	8dd\	.	16f\LL	.
.	.	.	.	.	.	.	16d\JJ	.
8r	.	.	8r	.	8r	.	16B-\LL	-tum
.	.	.	.	.	.	.	16A-\JJ	.
8E-\L	.	.	8g/L	.	8ee-\L	.	16G\LL	me-
.	.	.	.	.	.	.	16e-\JJ	.
*	*	*	*Xtuplet	*	*	*	*	*
8AA-\J	.	.	24a-/L	.	24cc\L	.	24c\LL	.
.	.	.	24g/	.	24b-\	.	24B-\	.
.	.	.	24f/JJ	.	24a-\JJ	.	24A-\JJ	.
8BB-/L	.	.	8e-/L	.	8g/L	.	8G/L	.
8BB-/J	.	.	8d/J	.	8f/J	.	8FM/J	.
=38	=38	=38	=38	=38	=38	=38	=38	=38
!	!	!	!	!LO:DY:a:t=f&colon;	!	!LO:DY:a:t=for	!	!
4E-\	.	.	16e-/LL	f	16e-/LL	f	4E-/	-um
.	.	.	16e-/	.	16e-/	.	.	.
.	.	.	16d/	.	16f/	.	.	.
.	.	.	16e-/JJ	.	16g/JJ	.	.	.
4r	.	.	16f/LL	.	16a-\LL	.	4r	.
.	.	.	16g/	.	16b-\	.	.	.
.	.	.	16a-/	.	16cc\	.	.	.
.	.	.	16f/JJ	.	16dd\JJ	.	.	.
!	!	!	!	!	!LO:TX:t=P:problem:mixed beam	!	!	!
4E-\	.	.	16g/LL	.	16ee-\LL	.	2r	.
.	.	.	16e-/	.	16g/	.	.	.
.	.	.	16f/	.	16a-/	.	.	.
.	.	.	16g/JJ	.	16b-/JJ	.	.	.
4r	.	.	16a-\LL	.	16cc\LL	.	.	.
.	.	.	16b-\	.	16dd\	.	.	.
.	.	.	16cc\	.	16ee-\	.	.	.
.	.	.	16dd\JJ	.	16ff\JJ	.	.	.
=39	=39	=39	=39	=39	=39	=39	=39	=39
*	*	*	*	*	*tremolo	*	*	*
!LO:TX:a:t=|	!	!	!	!	!	!	!	!
16E-/LL	.	.	16ee-\LL	.	16gg\LL	.	8r	.
!LO:TX:a:t=|	!	!	!	!	!	!	!	!
16E-/	.	.	16ee-\	.	16gg\	.	.	.
!LO:TX:a:t=|	!	!	!	!	!	!	!	!
16E-/	.	.	16ee-\	.	16gg\	.	8e-\	sub
!LO:TX:a:t=|	!	!	!	!	!	!	!	!
16E-/JJ	.	.	16ee-\JJ	.	16gg\JJ	.	.	.
!LO:TX:a:t=|	!	!	!	!	!	!	!	!
16C/LL	.	.	16ee-\LL	.	16gg\LL	.	8e-\	tec-
!LO:TX:a:t=|	!	!	!	!	!	!	!	!
16C/	.	.	16ee-\	.	16gg\	.	.	.
!LO:TX:a:t=|	!	!	!	!	!	!	!	!
16AAn/	.	.	16ee-\	.	16gg\	.	8e-\	-tum
!LO:TX:a:t=|	!	!	!	!	!	!	!	!
16AA/JJ	.	.	16ee-\JJ	.	16gg\JJ	.	.	.
!	!	!	!LO:LB:g=original	!	!	!	!	!
*	*	*	*	*	*Xtremolo	*	*	*
2BB-;/	.	.	4ee-;\	.	4gg;\	.	4E-;/	me-
.	.	.	4r;	.	4r;	.	4FM/	.
!	!	!	!	!	!	!	!LO:LB:g=original	!
=40	=40	=40	=40	=40	=40	=40	=40	=40
8E-\L	3	.	16G/LL	.	(16e-/LL	.	4E-/	-um
.	.	.	16B-/	.	16g/)	.	.	.
8E-\	.	.	16B-/	.	(16g/	.	.	.
.	.	.	16g/JJ	.	16b-/JJ)	.	.	.
8E-\	.	.	16g/LL	.	(16b-\LL	.	4r	.
.	.	.	16g/	.	16ee-\)	.	.	.
8E-\J	.	.	16g/	.	(16ee-\	.	.	.
.	.	.	16b-/JJ	.	16gg\JJ)	.	.	.
!LO:LB:g=original	!	!	!	!	!LO:LB:g=original	!	!	!
8BB-/L	.	.	16a-/LL	.	16ff\LL	.	2r	.
.	.	.	16f/JJ	.	16dd\JJ	.	.	.
8BB-/	.	.	4g/	.	4b-\	.	.	.
8BB-/	.	.	.	.	.	.	.	.
8BB-/J	.	.	8f/	.	8a-\	.	.	.
=41	=41	=41	=41	=41	=41	=41	=41	=41
8E-\L	.	.	16e-/LL	.	16g\LL	.	0r	.
.	.	.	16g/	.	16b-\	.	.	.
8E-\J	.	.	16g/	.	16b-\	.	.	.
.	.	.	16b-/JJ	.	16dd-X\JJ	.	.	.
8AA-/L	.	.	16a-/LL	.	16cc\LL	.	.	.
.	.	.	16f/	.	16ddn\	.	.	.
8BB-/J	.	.	16f/	.	16dd\	.	.	.
.	.	.	16g/JJ	.	16ee-\JJ	.	.	.
8C/L	.	.	8a-\L	.	8ff\L	.	.	.
8AA-/J	.	.	24cc\L	.	24aa-\L	.	.	.
.	.	.	24b-\	.	24gg\	.	.	.
.	.	.	24a-\JJ	.	24ff\JJ	.	.	.
8BB-/L	.	.	8g/L	.	8ee-\L	.	.	.
8BB-/J	.	.	8f/J	.	8dd\J	.	.	.
=42	=42	=42	=42	=42	=42	=42	=42	=42
!LO:TX:t=P:problem:mixed beam	!	!	!	!	!LO:TX:a:t=|	!	!	!
8E-\L	.	.	16g/LL	.	16ee-\LL	.	.	.
.	.	.	16g/	.	(16b-\	.	.	.
8EE-/J	.	.	16f/	.	16a-\	.	.	.
.	.	.	16e-/JJ	.	16g\JJ)	.	.	.
!	!	!	!	!	!LO:TX:b:t=|	!	!	!
8AA-/L	.	.	16a-/LL	.	16cc/LL	.	.	.
.	.	.	16f/	.	(16a-/	.	.	.
8BB-/J	.	.	16e-/	.	16g/	.	.	.
.	.	.	16d/JJ	.	16f/JJ)	.	.	.
!LO:TX:t=P:problem:mixed beam	!	!	!	!	!	!	!	!
8E-\L	.	.	8B-/L	.	8g/L	.	.	.
8AA-/J	.	.	24c/L	.	(24a-/L	.	.	.
.	.	.	24B-/	.	24g/	.	.	.
.	.	.	24A-/JJ	.	24f/JJ)	.	.	.
!	!	!	!LO:LB:g=original	!	!	!	!	!
8BB-/L	.	.	8G/L	.	8e-/L	.	.	.
8BB-/J	.	.	8A-/J	.	8d/J	.	.	.
=43	=43	=43	=43	=43	=43	=43	=43	=43
!	!	!LO:DY:a:t=p.	!	!LO:DY:a:t=piano	!	!LO:DY:a:t=p&colon;	!	!
8E-\L	.	p	8G/L	p	8e-/L	p	1r	.
8E-\	.	.	16G/L	.	16e-/L	.	.	.
.	.	.	16e-/JJ	.	16g/JJ	.	.	.
8E-\	.	.	16e-/LL	.	16g/LL	.	.	.
.	.	.	16g/	.	16b-/	.	.	.
8E-\J	.	.	16e-/	.	16g/	.	.	.
.	.	.	16g/JJ	.	16b-/JJ	.	.	.
4E-\	.	.	4e-;/	.	4g/	.	.	.
!	!	!	!	!	!LO:TX:b:t=Verte\nSeqve	!	!	!
4r	.	.	4r	.	4r	.	.	.
!	!	!	!	!	!LO:PB:g=original	!	!	!
=44||	=44||	=44||	=44||	=44||	=44||	=44||	=44||	=44||
!	!	!LO:DY:a:t=p&colon;	!LO:TX:t=[segno]	!LO:DY:a:t=pianiſsime	!	!LO:DY:a:t=pp&colon;	!	!
16E-\LL	.	p	16g/LL	pp	16b-\LL	pp	4r	.
16E-\	.	.	16g/	.	16b-\	.	.	.
16E-\	.	.	16g/	.	16b-\	.	.	.
16E-\JJ	.	.	16g/JJ	.	16b-\JJ	.	.	.
16E-\LL	.	.	16g/LL	.	16b-\LL	.	8r	.
16E-\	.	.	16g/	.	16b-\	.	.	.
16E-\	.	.	16g/	.	16b-\	.	8B-\	sed
16E-\JJ	.	.	16g/JJ	.	16b-\JJ	.	.	.
*	*	*	*tremolo	*	*tremolo	*	*	*
16E-\LL	.	.	16g/LL	.	16b-\LL	.	8B-\	tan-
16E-\	.	.	16g/	.	16b-\	.	.	.
16E-\	.	.	16g/	.	16b-\	.	8G\	-tum
16E-\JJ	.	.	16g/	.	16b-\	.	.	.
*tremolo	*	*	*	*	*	*	*	*
16E-\LL	.	.	16g/	.	16b-\	.	8r	.
16E-\	.	.	16g/	.	16b-\	.	.	.
16E-\	.	.	16g/	.	16b-\	.	8e-\	sed
16E-\JJ	.	.	16g/JJ	.	16b-\JJ	.	.	.
*Xtremolo	*	*	*Xtremolo	*	*	*	*	*
!LO:LB:g=original	!	!	!	!	!	!	!	!
=45	=45	=45	=45	=45	=45	=45	=45	=45
16E-\LL	.	.	16g/LL	.	16b-\LL	.	8e-\	tan-
16E-\	.	.	16g/	.	16b-\	.	.	.
16E-\	.	.	16g/	.	16b-\	.	8B-\	-tum
16E-\JJ	.	.	16g/JJ	.	16b-\	.	.	.
*tremolo	*	*	*tremolo	*	*	*	*	*
16E-\LL	.	.	16g/LL	.	16b-\	.	4r	.
16E-\	.	.	16g/	.	16b-\	.	.	.
16E-\	.	.	16g/	.	16b-\	.	.	.
16E-\JJ	.	.	16g/JJ	.	16b-\JJ	.	.	.
*Xtremolo	*	*	*	*	*Xtremolo	*	*	*
8E-\L	.	.	16a-/LL	.	16cc\LL	.	8c\L	dic
.	.	.	16a-/	.	16cc\	.	.	.
8A-\J	.	.	16a-/	.	16cc\	.	24e-\L	.
.	.	.	.	.	.	.	24d\	.
.	.	.	16a-/JJ	.	16cc\JJ	.	.	.
.	.	.	.	.	.	.	24c\JJ	.
*	*	*	*Xtremolo	*	*	*	*	*
!LO:TX:t=P:problem:mixed beam	!	!	!	!	!	!	!	!
8B-\L	4	.	16g/LL	.	16b-\LL	.	8B-\L	ver-
.	.	.	16g/	.	16b-\	.	.	.
8BB-/J	3	.	16f/	.	16a-\	.	8A-\J	.
.	.	.	16f/JJ	.	16a-\JJ	.	.	.
!	!	!	!LO:LB:g=original	!	!	!	!	!
=46	=46	=46	=46	=46	=46	=46	=46	=46
!	!	!	!	!LO:DY:a:t=for	!	!LO:DY:a:t=for	!	!
4E-\	.	.	16g\LL	f	(16g\LL	f	4G\	-bum
.	.	.	16g\	.	16b-\)	.	.	.
.	.	.	16g\	.	(16b-\	.	.	.
.	.	.	16g\JJ	.	16ee-\JJ)	.	.	.
4r	.	.	16g\LL	.	(16ee-\LL	.	4r	.
.	.	.	16b-\	.	16gg\)	.	.	.
.	.	.	16b-\	.	(16gg\	.	.	.
.	.	.	16g\JJ	.	16ee-\JJ)	.	.	.
!LO:TX:t=P:problem:mixed beam	!	!	!	!LO:DY:a:t=p&colon;	!	!LO:DY:a:t=p.	!	!
8E-\L	.	.	8g\L	p	8ee-\L	p	8E-/L	sa-
8EE-/J	.	.	16a-\L	.	16ff\L	.	16F/L	.
.	.	.	16b-\JJ	.	16gg\JJ	.	16G/JJ	.
8AA-/L	.	.	16cc\LL	.	16aa-\LL	.	16A-\LL	-na-
.	.	.	16b-\	.	16gg\	.	16B-\JJ	.
8BB-/J	.	.	16cc\	.	16aa-\	.	16c\LL	-bi-
.	.	.	16dd\JJ	.	16ff\JJ	.	16d\JJ	.
!	!	!	!	!	!	!	!LO:LB:g=original	!
=47	=47	=47	=47	=47	=47	=47	=47	=47
16E-\LL	.	.	16ee-\LL	.	16gg\LL	.	4e-\	-tur
16BB-\	.	.	16ee-\	.	16gg\	.	.	.
16GG\	.	.	16ee-\	.	16gg\	.	.	.
16EE-\JJ	.	.	16ee-\JJ	.	16gg\JJ	.	.	.
*	*	*	*tremolo	*	*	*	*	*
8E-\L	.	.	16ee-\LL	.	16gg\LL	.	16g\LL	a-
.	.	.	16ee-\	.	16gg\	.	16e-\	.
8E-\J	.	.	16ee-\	.	16gg\	.	16d\	.
.	.	.	16ee-\JJ	.	16gg\JJ	.	16e-\JJ	.
*	*	*	*Xtremolo	*	*	*	*	*
!	!	!	!	!	!LO:LB:g=original	!	!	!
8E-\L	4	.	16cc\LL	.	16aa-\LL	.	8c\	-ni-
.	.	.	16cc\	.	16aa-\	.	.	.
8E-\J	3	.	16b-\	.	16gg\	.	8B-\	-ma
.	.	.	16b-\JJ	.	16gg\JJ	.	.	.
8D\L	.	.	16cc\LL	.	16aa-\LL	.	16c\LL	me-
.	.	.	16cc\	.	16aa-\	.	16A-\	.
8D\J	.	.	16dd\	.	16aa-\	.	16G\	.
.	.	.	16dd\JJ	.	16aa-\JJ	.	16A-\JJ	.
=48	=48	=48	=48	=48	=48	=48	=48	=48
.	.	.	.	.	8qqaa-/	.	.	.
4E-\	.	.	4ee-\	.	4gg\	.	4G\	-a
!	!	!	!	!	!	!	!LO:N:vis=16	!
4r	.	.	4r	.	4r	.	8B-\	a-
.	.	.	.	.	.	.	16B-\	-ni-
.	.	.	.	.	.	.	16B-\	-ma
*	*	*	*	*	*	*	*2\right	*
8BB-/	.	.	16dd\LL	.	16ff\LL	.	2B-\	me-
.	.	.	16ee-\	.	16gg\	.	.	.
8r	.	.	16ee-\	.	16gg\	.	.	.
.	.	.	16ff\JJ	.	16aa-\JJ	.	.	.
4r	.	.	16ff\LL	.	16aa-\LL	.	.	.
.	.	.	16ee-\	.	16gg\	.	.	.
.	.	.	16ee-\	.	16gg\	.	.	.
.	.	.	16dd\JJ	.	16ff\JJ	.	.	.
!	!	!	!LO:LB:g=original	!	!	!	!	!
=49	=49	=49	=49	=49	=49	=49	=49	=49
8E-\	.	.	16ee-\LL	.	16gg\LL	.	2B-\	.
.	.	.	16ff\	.	16aa-\	.	.	.
8r	.	.	16ff\	.	16aa-\	.	.	.
.	.	.	16gg\JJ	.	16bb-\JJ	.	.	.
4r	.	.	16gg\LL	.	16bb-\LL	.	.	.
.	.	.	16ff\	.	16aa-\	.	.	.
.	.	.	16ff\	.	16aa-\	.	.	.
.	.	.	16ee-\JJ	.	16gg\JJ	.	.	.
!LO:LB:g=original	!	!	!	!	!	!	!	!
8BB-/	.	.	16dd\LL	.	16ff\LL	.	2B-\	-a
.	.	.	16ee-\	.	16gg\	.	.	.
8r	.	.	16ee-\	.	16gg\	.	.	.
.	.	.	16ff\JJ	.	16aa-\JJ	.	.	.
4r	.	.	16ff\LL	.	16aa-\LL	.	.	.
.	.	.	16ee-\	.	16gg\	.	.	.
.	.	.	16ee-\	.	16gg\	.	.	.
.	.	.	16dd\JJ	.	16ff\JJ	.	.	.
=50	=50	=50	=50	=50	=50	=50	=50	=50
8E-\	.	.	8ee-\L	.	8gg\L	.	8e-\	a-
8r	.	.	16dd\L	.	16ff\L	.	16d\	-ni-
.	.	.	16cc\JJ	.	16ee-\JJ	.	16c\	-ma
4r	.	.	16b-\LL	.	16dd\LL	.	16B-\LL	me-
.	.	.	16a-\	.	16cc\	.	16A-\	.
.	.	.	16g\	.	16b-\	.	16G\	.
.	.	.	16f\JJ	.	16a-\JJ	.	16F\JJ	.
*	*	*	*tremolo	*	*tremolo	*	*	*
!	!	!	!	!	!	!	!LO:LB:g=original	!
8E-\L	.	.	16e-/LL	.	16g/LL	.	4E-/	.
.	.	.	16e-/	.	16g/	.	.	.
8E-\J	.	.	16e-/	.	16g/	.	.	.
.	.	.	16e-/JJ	.	16g/JJ	.	.	.
8BB-/L	.	.	16d/LL	.	16f/LL	.	4FM/	.
.	.	.	16d/	.	16f/	.	.	.
8BB-/J	.	.	16d/	.	16f/	.	.	.
.	.	.	16d/JJ	.	16f/JJ	.	.	.
*	*	*	*Xtremolo	*	*Xtremolo	*	*	*
!	!	!	!	!	!LO:LB:g=original	!	!	!
=51	=51	=51	=51	=51	=51	=51	=51	=51
!LO:TX:t=P:problem:mixed beam	!	!	!	!	!	!	!	!
8E-\L	.	.	8e-/L	.	8g/L	.	4E-/	-a
8EE-/	.	.	16g/L	.	16b-/L	.	.	.
.	.	.	16a-/JJ	.	16cc/JJ	.	.	.
8EE-/J	.	.	8g/	.	8b-/	.	8r	.
8r	.	.	8r	.	8r	.	16B-\LL	sed
.	.	.	.	.	.	.	16c\JJ	.
.	.	.	.	.	.	.	8qqB-/	.
8D\L	.	.	8f/L	.	8a-/L	.	8A-\	tan-
8E-\J	.	.	8e-/J	.	8g/J	.	8G\	-tum
4r	.	.	8g/L	.	8ee-\L	.	8e-\L	dic
.	.	.	16f/L	.	16dd\L	.	16d\L	.
.	.	.	16a-/JJ	.	16cc\JJ	.	16c\JJ	.
!	!	!	!LO:TX:b:t=Verte	!	!	!	!	!
!	!	!	!LO:PB:g=original	!	!	!	!	!
=52	=52	=52	=52	=52	=52	=52	=52	=52
8BB-/L	.	.	8a-/L	.	8cc\L	.	8c\	ver-
8E-/J	.	.	8g/J	.	8b-\J	.	8B-\	-bum
8E-\L	.	.	16g/LL	.	16b-\LL	.	4r	.
.	.	.	16a-/	.	16cc\	.	.	.
8E-\J	.	.	16a-/	.	16cc\	.	.	.
.	.	.	16f/JJ	.	16dd\JJ	.	.	.
4E-\	.	.	4g/	.	4ee-\	.	16G\LL	Sa-
.	.	.	.	.	.	.	16B-\	.
.	.	.	.	.	.	.	16A-\	.
.	.	.	.	.	.	.	16G\JJ	.
4r	.	.	4r	.	4r	.	16A-\LL	-na-
.	.	.	.	.	.	.	16B-\JJ	.
.	.	.	.	.	.	.	16c\	-bi-
.	.	.	.	.	.	.	16d\	-tur
=53	=53	=53	=53	=53	=53	=53	=53	=53
4E-\	.	.	4g/	.	4ee-\	.	16e-\LL	a-
.	.	.	.	.	.	.	16g\	.
.	.	.	.	.	.	.	16f\	.
.	.	.	.	.	.	.	16e-\JJ	.
4r	.	.	4r	.	4r	.	16d\LL	.
.	.	.	.	.	.	.	16c\JJ	.
.	.	.	.	.	.	.	16B-\	-ni-
.	.	.	.	.	.	.	16A-\	-ma
!LO:TX:t=P:problem:mixed beam	!	!	!	!	!	!	!LO:LB:g=original	!
8E-\L	.	.	16B-/LL	.	16g/LL	.	16G\LL	me-
.	.	.	16B-/	.	16g/	.	16B-\	.
8AA-/J	.	.	16c/	.	16a-/	.	16c\	.
.	.	.	16c/JJ	.	16a-/JJ	.	16A-\JJ	.
8BB-/L	.	.	16B-/LL	.	16g/LL	.	8G/L	.
.	.	.	16B-/	.	16g/	.	.	.
8BB-/J	.	.	16A-/	.	16f/	.	8F/J	.
.	.	.	16A-/JJ	.	16f/JJ	.	.	.
=54	=54	=54	=54	=54	=54	=54	=54	=54
!	!	!	!	!LO:DY:a:t=f&colon;	!	!LO:DY:a:t=for.	!	!
4E-\	.	.	16G/LL	f	16e-/LL	f	4E-/	-a
.	.	.	16e-/	.	16e-/	.	.	.
.	.	.	16d/	.	16f/	.	.	.
.	.	.	16e-/JJ	.	16g/JJ	.	.	.
4r	.	.	16f/LL	.	16a-\LL	.	4r	.
.	.	.	16g/	.	16b-\	.	.	.
.	.	.	16a-/	.	16cc\	.	.	.
.	.	.	16f/JJ	.	16dd\JJ	.	.	.
*	*	*	*	*	*tremolo	*	*	*
8E-/L	.	.	16g/LL	.	16ee-\LL	.	4E-/	a-
.	.	.	16g/	.	16ee-\	.	.	.
8C/J	.	.	16g/	.	16ee-\	.	.	.
.	.	.	16g/JJ	.	16ee-\	.	.	.
*	*	*	*tremolo	*	*	*	*	*
8BB-/L	.	.	16g/LL	.	16ee-\	.	8E-/	-ni-
.	.	.	16g/	.	16ee-\	.	.	.
8AAn/J	.	.	16g/	.	16ee-\	.	8E-/	-ma
.	.	.	16g/JJ	.	16ee-\JJ	.	.	.
*	*	*	*Xtremolo	*	*Xtremolo	*	*	*
!LO:LB:g=original	!	!	!	!	!LO:LB:g=original	!	!	!
=55	=55	=55	=55	=55	=55	=55	=55	=55
4BB-/	.	.	4g;/	.	4ee-\	.	4E-;/	me-
4r;	.	.	4r	.	4r;	.	4F/	.
!	!	!	!LO:LB:g=original	!LO:DY:a:t=p&colon;	!	!	!	!
8E-\L	.	.	16g/LL	p	16ee-\LL	.	4E-/	-a
.	.	.	16g/	.	16b-\	.	.	.
8E-\J	.	.	16g/	.	16b-\	.	.	.
.	.	.	16f/JJ	.	16a-\JJ	.	.	.
.	.	.	.	.	8qqa-/	.	.	.
4E-\	.	.	4e-/	.	4g/	.	4r	.
=56	=56	=56	=56	=56	=56	=56	=56	=56
!	!	!LO:DY:a	!	!	!	!LO:DY:a:t=for.	!	!
8E-\L	.	f	4.G/	.	4.e-/	f	00r	.
8E-\	.	.	.	.	.	.	.	.
8E-\J	.	.	.	.	.	.	.	.
8r	.	.	16c/LL	.	(16a-/LL	.	.	.
.	.	.	16B-/JJ	.	16g/JJ)	.	.	.
8E-\L	.	.	4.B-/	.	4.g/	.	.	.
8E-\	.	.	.	.	.	.	.	.
8E-\J	.	.	.	.	.	.	.	.
8r	.	.	16a-/LL	.	(16cc/LL	.	.	.
.	.	.	16g/JJ	.	16b-/JJ)	.	.	.
=57	=57	=57	=57	=57	=57	=57	=57	=57
8E-\L	.	.	8g/L	.	8b-\L	.	.	.
8E-\	.	.	16a-/L	.	16cc\L	.	.	.
.	.	.	16f/JJ	.	16dd\JJ	.	.	.
.	.	.	8qqa-/	.	8qqff/	.	.	.
8E-\	.	.	8g/L	.	8ee-\L	.	.	.
8E-\J	.	.	16f/L	.	16dd\L	.	.	.
.	.	.	16a-/JJ	.	16cc\JJ	.	.	.
8E-\L	.	.	8a-/L	.	8cc\L	.	.	.
8E-\J	.	.	8g/J	.	8b-\J	.	.	.
8EE-/	.	.	8r	.	8r	.	.	.
8r	.	.	8g/	.	8b-\	.	.	.
=58	=58	=58	=58	=58	=58	=58	=58	=58
8AA-/L	.	.	8a-\L	.	8cc\L	.	.	.
8AA-/J	.	.	24cc\L	.	24aa-\L	.	.	.
.	.	.	24b-\	.	24gg\	.	.	.
.	.	.	24a-\JJ	.	24ff\JJ	.	.	.
8BB-/L	.	.	8g/L	.	8ee-\L	.	.	.
8BB-/J	.	.	8f/J	.	8dd\J	.	.	.
.	.	.	8qqf/	.	8qqdd/	.	.	.
8E-\L	.	.	4g/	.	4ee-\	.	.	.
8BB-\J	.	.	.	.	.	.	.	.
8EE-/	.	.	4r	.	8r	.	.	.
8r	.	.	.	.	16ee-\LL	.	.	.
.	.	.	.	.	16dd-X\JJ	.	.	.
!	!	!	!LO:LB:g=original	!	!LO:LB:g=original	!	!	!
=59	=59	=59	=59	=59	=59	=59	=59	=59
8r	.	.	16g/LL	.	(16dd-X\LL	.	.	.
.	.	.	16a-/JJ	.	16cc\JJ)	.	.	.
8E-\L	6 4	.	4a-/	.	4cc\	.	.	.
8E-\	.	.	.	.	.	.	.	.
8E-\J	.	.	16cc/LL	.	(16ee-\LL	.	.	.
.	.	.	16a-/JJ	.	16cc\JJ)	.	.	.
8r	.	.	16a-/LL	.	(16cc\LL	.	.	.
.	.	.	16g/JJ	.	16b-\JJ)	.	.	.
8E-\L	5 3	.	4g/	.	4b-\	.	.	.
8E-\	.	.	.	.	.	.	.	.
8E-\J	.	.	16e-/LL	.	16g/LL	.	.	.
.	.	.	16g/JJ	.	16b-/JJ	.	.	.
=60	=60	=60	=60	=60	=60	=60	=60	=60
8D\L	.	.	16g/LL	.	16b-/LL	.	00r	.
.	.	.	16f/	.	16a-/	.	.	.
8BB-\J	.	.	16d/	.	16f/	.	.	.
.	.	.	16f/JJ	.	16a-/JJ	.	.	.
8E-\L	3	.	16e-/LL	.	16g\LL	.	.	.
.	.	.	16g/	.	16ee-\	.	.	.
8E-\J	.	.	16g/	.	16b-\	.	.	.
.	.	.	16e-/JJ	.	16g\JJ	.	.	.
!LO:LB:g=original	!	!	!	!	!	!	!	!
!LO:TX:t=P:problem:mixed beam	!	!	!	!	!	!	!	!
.	.	.	8qqe-/	.	8qqg/	.	.	.
8B-\L	43	.	4d/	.	4f/	.	.	.
8BB-/	.	.	.	.	.	.	.	.
8BB-/J	.	.	4r	.	8r	.	.	.
8r	.	.	.	.	16b-\LL	.	.	.
.	.	.	.	.	16dd\JJ	.	.	.
=61	=61	=61	=61	=61	=61	=61	=61	=61
!LO:TX:t=P:problem:mixed beam	!	!	!	!	!	!	!	!
8BB-/L	.	.	8.dd\L	.	8.ff\L	.	.	.
8B-\J	.	.	.	.	.	.	.	.
.	.	.	16cc\Jk	.	16ee-\Jk	.	.	.
!LO:TX:t=P:problem:mixed beam	!	!	!	!	!	!	!	!
8BB-/L	.	.	16b-\LL	.	16dd\LL	.	.	.
.	.	.	16dd\	.	16ff\	.	.	.
8B-\J	.	.	16dd\	.	16bb-\	.	.	.
.	.	.	16b-\JJ	.	16dd\JJ	.	.	.
.	.	.	.	.	8qqdd/	.	.	.
8F\L	.	.	4an\	.	4cc\	.	.	.
16F\L	.	.	.	.	.	.	.	.
16G\JJ	.	.	.	.	.	.	.	.
8An\L	.	.	8r	.	8r	.	.	.
!	!	!	!	!LO:DY:a:t=p&colon;	!	!LO:DY:a:t=p.	!	!
8F\J	.	.	8cc\	p	8ee-\	p	.	.
!	!	!	!LO:LB:g=original	!	!	!	!	!
=62	=62	=62	=62	=62	=62	=62	=62	=62
!LO:TX:t=P:problem:mixed beam	!	!	!	!	!	!	!	!
8B-\L	.	.	16b-\LL	.	16dd\LL	.	.	.
.	.	.	16dd\	.	16ff\	.	.	.
8BB-/J	.	.	16b-\	.	16dd\	.	.	.
.	.	.	16dd\JJ	.	16ff\JJ	.	.	.
8E-\L	.	.	16cc/LL	.	16ee-\LL	.	.	.
.	.	.	16e-/	.	16cc\	.	.	.
8F\J	.	.	16d/	.	16b-\	.	.	.
.	.	.	16c/JJ	.	16an\JJ	.	.	.
.	.	.	8qqc/	.	8qqa/	.	.	.
8B-\L	.	.	4d/	.	4b-/	.	.	.
16B-\L	.	.	.	.	.	.	.	.
16c\JJ	.	.	.	.	.	.	.	.
16B-\LL	.	.	4r	.	4r	.	.	.
16A-X\	.	.	.	.	.	.	.	.
16G\	.	.	.	.	.	.	.	.
16F\JJ	.	.	.	.	.	.	.	.
=63	=63	=63	=63	=63	=63	=63	=63	=63
!	!	!	!	!	!LO:TX:t=P:problem:mixed beam	!LO:DY:a:t=f.	!	!
8E-\L	67	.	16e-/LL	.	(16e-/LL	f	.	.
.	.	.	16g/JJ	.	16dd-X\JJ)	.	.	.
16E-\L	.	.	4b-\	.	4dd-\	.	.	.
16F\JJ	.	.	.	.	.	.	.	.
8G\L	.	.	.	.	.	.	.	.
8E-\J	.	.	16g\LL	.	(16b-\LL	.	.	.
.	.	.	16b-\JJ	.	16dd-\JJ)	.	.	.
!LO:TX:t=P:problem:mixed beam	!	!	!	!	!	!	!	!
8A-\L	.	.	16a-\LL	.	(16cc\LL	.	.	.
.	.	.	16cc\JJ	.	16aa-\JJ)	.	.	.
16AA-/L	.	.	4cc\	.	4aa-\	.	.	.
16BB-/JJ	.	.	.	.	.	.	.	.
8C/L	.	.	.	.	.	.	.	.
8Dn/J	53	.	16a-\LL	.	16ff\LL	.	.	.
.	.	.	16f\JJ	.	16ddn\JJ	.	.	.
=64	=64	=64	=64	=64	=64	=64	=64	=64
!LO:TX:t=P:problem:mixed beam	!	!	!	!	!	!	!LO:TX:b:i:t=al Segno	!
8E-\L	.	.	16g/LL	.	16ee-\LL	.	1r	.
.	.	.	16g/	.	16b-\	.	.	.
8EE-/J	.	.	16e-/	.	16g\	.	.	.
.	.	.	16g/JJ	.	16b-\JJ	.	.	.
8BB-/L	.	.	16g/LL	.	16b-/LL	.	.	.
.	.	.	16f/	.	16a-/	.	.	.
8BB-/J	.	.	16e-/	.	16g/	.	.	.
.	.	.	16d/JJ	.	16f/JJ	.	.	.
.	.	.	8qqd/	.	8qqf/	.	.	.
8E-\L	.	.	4e-/	.	4e-/	.	.	.
8BB-\J	.	.	.	.	.	.	.	.
!LO:TX:b:i:t=al Segno	!	!	!LO:TX:b:i:t=Da Capo al Segno	!	!LO:TX:b:i:t=Da Capo al Segno	!	!	!
4EE-/	.	.	4r	.	4r	.	.	.
==	==	==	==	==	==	==	==	==
*-	*-	*-	*-	*-	*-	*-	*-	*-
!!!system-decoration: (s1),[(s2,s3),(s4)
!!!ENC: Filip Voros
!!!END: 2024-05-13
!!!ENC: Leszek Kubiak
!!!END: 2024-08-05
